!!!OTL: Espen - Zweiglein. / Andere Art.
!!!ARE: Europa, Mitteleuropa, Deutschland
!!!SCT: A0178B
!!!TXL: @@GMH
!!!YEM: Copyright 1995, estate of Helmut Schaffrath.
**kern	**text
*M4/4yy	*
*clefC4	*
*k[b-]	*
*F:	*
=1	=1
4ryy	.
{4F	Es
4F	ſtet
4F	ein
=2	=2
4B-	Sel-
4F	-benſträu-
4G	.
4A	-che-
=3	=3
2B-	-lin
4r}	.
{4B-	ge-
=4	=4
4A	-bo-
4B-	-gen
4c	ʒu
4d	der
=5	=5
2c	Er-
2B-	-den,
=6	=6
4r}	.
{4B-	der
4A	mir
4B-	der
=7	=7
4c	al-
4d	-ler-
*lig	*
4c	-lieb-
8B-L	.
8AJ	.
=8	=8
4G	.
*Xlig	*
4G	-ſte
2F	war,
=9	=9
4r}	.
{4c	der
4B-	iſt
4A	mir
=10	=10
4G	lei-
4F	-der
2G	fer-
=11	=11
1F}	-ne.
==	==
!!!GTL: Liebeslieder
!!!AGN: Romanze, Ballade, Lied
!! Werlin Hs. 1646 S. 1446.
!!!ONB: ESAC (Essen Associative Code) Database: ALTDEU
!!!AMT: simple quadruple
!!!AIN: vox
!!!EED: Helmut Schaffrath
!!!EEV: 1.0
!!!URL-scan: https://rosdok.uni-rostock.de/mcrviewer/recordIdentifier/rosdok_ppn738218359/iview2/phys_0340.iview2?x=-495.6391625615763&y=593.1618676080834&scale=0.4629418472063854&rotation=0&layout=singlePageLayout&logicalDiv=log_0009
!!!ENC: Anna Maria Matuszewska
!!!EEV: 2024/07/03
*-	*-
